X: 21361
T: MARCH OF THE CONSCRIPT
C: Weber
R: march
B: K\"ohler's Violin Repository, v.2, 1885 p.136
F: http://www.archive.org/details/klersviolinrepos02rugg
Z: 2012 John Chambers <jc:trillian.mit.edu>
M: C|
L: 1/16
K: C
[|\
G4 (.G3.G) G4 G4 | c12 (B2A2) | (A2G2)F2E2 E2z2 (uE3D) | C8- C2z2 (udcBA) |
G2z2 (uAGFE) D2z2 (uGFED) | vE2z2 vC6z2 (udcBA) | G2z2 (uAGFE) D2z2 (uGFED) | vE2z2 vC6z2 (u{D}CB,CD) |
E2z2 (.E3.E) E4 E4 | A8- A2z2 (uAGFE) | F2z2 (uGFED) D2z2 (uFEDC) | B,2z2 z4 z4 (u^FGBA) |
G8- G2z2 (u^ABdc) | B8- B2z2 (uGABc) | d8 e8 | f16 |
"^>"^f16 | g4 (.g3.g) g4 g4 | c'12 (b2a2) | (ua2g2f2e2) e2z2 (ue3d) |
c8- c2z2 (ud'c'ba) | g2z2 (uagfe) d2z2 (ugfed) | ve2z2 vc6z2 (ud'c'ba) | g2z2 (uagfe) d2z2 (ugfed) |
ve2z2 vc6z2 {d}(ucBcd) | e2z2 (.e3.e) e4 e4 | a8- a2z2 (uagfe) | f2z2 (ugfed) d2z2 (ugfed) |
c8- c2z2 (ud'c'ba) | g2z2 (uagfe) d2z2 (ugfed) | ve2z2 vc6z2 (ud'c'ba) | g2z2 (uagfe) d2z2 (ugfed) |
e2fg (^ga)bc' | c'2fe (ed)=gf | e2fg (^ga)bc' (c'b)ag (gf)ed | c6z2 z4 (.e3.e) |
c4 e4 c4 e4 | c8- c2z2 (u.e3.e) | c4 e4 c4 e4 | c8- c2z2 z4 |]

%%sep 2 1 500

